assets/fill/list-fill.svg

<svg id="Flat" xmlns="http://www.w3.org/2000/svg" viewBox="0 0 256 256">
  <path d="M223.999,128.00037a8.00039,8.00039,0,0,1-8,8h-176a8,8,0,0,1,0-16h176A8.00039,8.00039,0,0,1,223.999,128.00037Zm-184-56h176a8,8,0,0,0,0-16h-176a8,8,0,1,0,0,16Zm176,112h-176a8,8,0,0,0,0,16h176a8,8,0,0,0,0-16Z"/>
</svg>

<svg xmlns="http://www.w3.org/2000/svg" viewBox="0 0 256 256"><path d="M224,128a8,8,0,0,1-8,8H40a8,8,0,0,1,0-16H216A8,8,0,0,1,224,128ZM40,72H216a8,8,0,0,0,0-16H40a8,8,0,0,0,0,16ZM216,184H40a8,8,0,0,0,0,16H216a8,8,0,0,0,0-16Z"/></svg>
